src/img/svg/adv2.svg

<svg width="28" height="22" viewBox="0 0 28 22" fill="none" xmlns="http://www.w3.org/2000/svg">
<path d="M27.5 2.9225V19.0775C27.5 19.7675 27.269 20.3435 26.807 20.8055C26.344 21.2685 25.7675 21.5 25.0775 21.5H2.9225C2.2325 21.5 1.6565 21.269 1.1945 20.807C0.7315 20.344 0.5 19.7675 0.5 19.0775V2.9225C0.5 2.2325 0.7315 1.6565 1.1945 1.1945C1.6565 0.7315 2.2325 0.5 2.9225 0.5H25.0775C25.7675 0.5 26.3435 0.7315 26.8055 1.1945C27.2685 1.6565 27.5 2.2325 27.5 2.9225ZM2 6.212H26V2.9225C26 2.6925 25.904 2.481 25.712 2.288C25.519 2.096 25.3075 2 25.0775 2H2.9225C2.6925 2 2.481 2.096 2.288 2.288C2.096 2.481 2 2.6925 2 2.9225V6.212ZM2 9.788V19.0775C2 19.3075 2.096 19.519 2.288 19.712C2.481 19.904 2.6925 20 2.9225 20H25.0775C25.3075 20 25.519 19.904 25.712 19.712C25.904 19.519 26 19.3075 26 19.0775V9.788H2Z" fill="#435DFF"/>
</svg>

<svg width="28" height="22" viewBox="0 0 28 22" fill="none" xmlns="http://www.w3.org/2000/svg"><path d="M27.5 2.922v16.155c0 .69-.231 1.266-.693 1.728-.463.463-1.04.695-1.73.695H2.922c-.69 0-1.266-.231-1.728-.693-.462-.463-.694-1.04-.694-1.73V2.922c0-.69.232-1.266.694-1.728C1.657.732 2.232.5 2.922.5h22.155c.69 0 1.266.232 1.728.694.463.463.695 1.038.695 1.728ZM2 6.213h24v-3.29c0-.23-.096-.441-.288-.634-.193-.192-.404-.288-.634-.288H2.922c-.23 0-.442.096-.635.288-.192.193-.288.405-.288.635v3.289Zm0 3.576v9.29c0 .23.096.441.288.634.193.192.405.288.635.288h22.155c.23 0 .441-.096.634-.288.192-.193.288-.404.288-.634v-9.29H2Z" fill="#435DFF"/></svg>
